X:478
T:Hughie Jim Paris
C:Joan McDonald Boes
S:Aly Bain (from a TV programme)
Z:Nigel Gatherer
R:reel
M:4/4
L:1/8
K:A
AF | EAAc  BAFA | EAcA  d2cd | eaag     aece | fdec B2 AF |
     EAAc  BAFA | EAcA  d2cd | eaag     aece | fcec A2   :|
ab | c'bag fecA | ce^df e2fg | ae (3eee fedc | dfec B2 ab |
     c'bag fecA | ce^df e2dc | daag     aece | fcec A2  :|]
<end>
<start>
